X:43
T:Les Chamignoux
R:Bourr\'ee
N:original url: www.wolfram.claranet.de
M:2/4
L:1/8
Q:1/4=130
K:G
|:E>E EC| EC zC| EF GF/E/|1 DC B, C/D/:|2 D4|
|:B,>A, B,D| A,/B,/A,/G,/ A,B,| CD EF|1 EC DG:|2 G4||
